X: 582
T: Lough Allen
C: anon.
O: Ireland
B: Francis O'Neill: "The Dance Music of Ireland" (1907) no. 582
R: Reel
Z: Transcribed by Frank Nordberg - http://www.musicaviva.com
F: http://www.musicaviva.com/abc/tunes/ireland/oneill-1001/oneill-1001-058
2.abc
M: C|
L: 1/8
K: A
(cd)|eAcA BGEd|eAcA d2(cd)|eABA BGEG|AcBG A2(cd)|eAcA BGEd|eAcA d2(cB)|
AcBd cefa|gedB A2|:(AG)|Beef gedB|agab a2(ba)|gaba gedB|AcBG A2:|
W:
W:
W: From Musica Viva - http://www.musicaviva.com
W: the Internet center for free sheet music downloads.


